src/lib/packages/icons/src/assets/filled/file-text-lock.svg

<svg width="24" height="24" viewBox="0 0 24 24" fill="none" xmlns="http://www.w3.org/2000/svg">
<path d="M17.75 12.93C17.9 12.9 18 12.79 18 12.64V9.75H15C12.58 9.75 11.25 8.42 11.25 6V3H6C4 3 3 4 3 6V18C3 20 4 21 6 21H13.7C13.87 21 14 20.87 14 20.7V19.05C14 18.2 14.26 17.5 14.75 17V16.6C14.75 14.79 16.04 13.27 17.75 12.93ZM11 16.75H7C6.586 16.75 6.25 16.414 6.25 16C6.25 15.586 6.586 15.25 7 15.25H11C11.414 15.25 11.75 15.586 11.75 16C11.75 16.414 11.414 16.75 11 16.75ZM14 12.75H7C6.586 12.75 6.25 12.414 6.25 12C6.25 11.586 6.586 11.25 7 11.25H14C14.414 11.25 14.75 11.586 14.75 12C14.75 12.414 14.414 12.75 14 12.75ZM12.75 6V3.75L17.25 8.25H15C13.42 8.25 12.75 7.58 12.75 6ZM20.75 17.79V16.6C20.75 15.359 19.74 14.35 18.5 14.35C17.26 14.35 16.25 15.359 16.25 16.6V17.79C15.751 17.961 15.5 18.38 15.5 19.05V21.15C15.5 22.05 15.9501 22.5 16.8501 22.5H20.1499C21.0499 22.5 21.5 22.05 21.5 21.15V19.05C21.5 18.38 21.249 17.961 20.75 17.79ZM19.25 17.7H17.75V16.6C17.75 16.186 18.087 15.85 18.5 15.85C18.913 15.85 19.25 16.186 19.25 16.6V17.7Z" fill="currentColor"/>
</svg>

<svg xmlns="http://www.w3.org/2000/svg" width="24" height="24" fill="none"><path fill="currentColor" d="M17.75 12.93c.15-.03.25-.14.25-.29V9.75h-3c-2.42 0-3.75-1.33-3.75-3.75V3H6C4 3 3 4 3 6v12c0 2 1 3 3 3h7.7c.17 0 .3-.13.3-.3v-1.65c0-.85.26-1.55.75-2.05v-.4c0-1.81 1.29-3.33 3-3.67ZM11 16.75H7a.75.75 0 0 1 0-1.5h4a.75.75 0 0 1 0 1.5Zm3-4H7a.75.75 0 0 1 0-1.5h7a.75.75 0 0 1 0 1.5ZM12.75 6V3.75l4.5 4.5H15c-1.58 0-2.25-.67-2.25-2.25Zm8 11.79V16.6c0-1.241-1.01-2.25-2.25-2.25a2.253 2.253 0 0 0-2.25 2.25v1.19c-.499.171-.75.59-.75 1.26v2.1c0 .9.45 1.35 1.35 1.35h3.3c.9 0 1.35-.45 1.35-1.35v-2.1c0-.67-.251-1.089-.75-1.26Zm-1.5-.09h-1.5v-1.1a.75.75 0 0 1 1.5 0v1.1Z"/></svg>
